X:22
T:Reels 2 - Skirmish
T:Foul Weather Call
K:D
M:2/2
|: ef | "A"gfed e2 a2 | gfed "G"dcBA | "D"d2 A2 "G"BcdB | "Em"g2 "D"f2 "A"e2 ef |
"Em"gfed "A"e2 a2 | gfed "G"dcBA | "D"d2 dA "G"BcdG | "D"F2 "A"E2 "D"D2 :|
|: FD | "Em"GFED "A"A2 A2 | "G"Bcde dc"A"BA | "D"d2 A2 "G"BcdB | "Em"g2 "D"f2 "A"e2 ef |
"Em"gfed "A"e2 a2 | gfed "G"dcBA | "D"d2 dA "G"BcdG | "D"F2 "A"E2 "D"D2 :|
T:Skirmish	(Nick Barber)
K:D
M:2/2
|: de | "D"f4 edce | d2 fd "A"ABAG | "Bm"FDAD BDAD | "G"BAGF "A"E2 de |
"D"f4 edce | d2 fd "A"ABAG | "G"FG A2 "A"EF G2 | "G"F2 "A"EC "D"D2 :|
|: DE | "D"F2 FD "G"G3 G | "D"F2 FD "G"G3 G | "D"F2 DD "G"GFGA | "Em"BAGF "A"E2 DE |
"D"F2 FD "G"G3 G | "D"F2 FD "G"G3 G | "D"FG A2 "G"EF G2 | "G"F2 "A"EC "D"D2 :|
%%newpage

